Newaita/actions/22/kt-speed-limits.svg

<?xml version="1.0" encoding="UTF-8"?>
<svg xmlns="http://www.w3.org/2000/svg" xmlns:xlink="http://www.w3.org/1999/xlink" width="22pt" height="22pt" viewBox="0 0 22 22" version="1.1">
<g id="surface1">
<path style=" stroke:none;fill-rule:nonzero;fill:rgb(25.882354%,25.882354%,25.882354%);fill-opacity:1;" d="M 8.488281 1.375 C 7.515625 1.617188 6.597656 2 5.761719 2.5 L 7.636719 5.621094 C 8.167969 5.304688 8.75 5.058594 9.371094 4.90625 Z M 13.34375 1.375 L 12.460938 4.90625 C 13.078125 5.058594 13.660156 5.304688 14.195312 5.621094 L 16.066406 2.5 C 15.230469 2 14.316406 1.617188 13.34375 1.375 Z M 2.328125 5.933594 C 1.828125 6.769531 1.445312 7.6875 1.203125 8.660156 L 4.734375 9.542969 C 4.886719 8.921875 5.132812 8.339844 5.449219 7.808594 Z M 19.503906 5.933594 L 16.378906 7.808594 C 16.699219 8.339844 16.941406 8.921875 17.09375 9.542969 L 20.625 8.660156 C 20.386719 7.6875 20.003906 6.769531 19.503906 5.933594 Z M 4.734375 12.632812 L 1.203125 13.515625 C 1.445312 14.488281 1.828125 15.402344 2.328125 16.238281 L 5.449219 14.367188 C 5.132812 13.832031 4.886719 13.25 4.734375 12.632812 Z M 17.09375 12.632812 C 16.941406 13.25 16.699219 13.832031 16.378906 14.367188 L 19.503906 16.238281 C 20.003906 15.402344 20.386719 14.488281 20.625 13.515625 Z M 17.09375 12.632812 "/>
<path style=" stroke:none;fill-rule:nonzero;fill:rgb(93.725491%,32.549021%,31.37255%);fill-opacity:1;" d="M 7.035156 9.207031 L 9.105469 12.101562 C 9.003906 12.667969 9.171875 13.273438 9.609375 13.710938 C 10.324219 14.421875 11.46875 14.421875 12.183594 13.710938 C 12.894531 12.996094 12.894531 11.851562 12.183594 11.136719 C 11.742188 10.699219 11.140625 10.53125 10.574219 10.632812 L 7.679688 8.566406 Z M 7.035156 9.207031 "/>
</g>
</svg>

<svg xmlns="http://www.w3.org/2000/svg" width="22pt" height="22pt" viewBox="0 0 22 22"><path d="M8.488 1.375C7.516 1.617 6.598 2 5.762 2.5l1.875 3.121a6.344 6.344 0 0 1 1.734-.715zm4.856 0l-.883 3.531c.617.153 1.2.399 1.734.715L16.066 2.5c-.836-.5-1.75-.883-2.722-1.125zM2.328 5.934c-.5.836-.883 1.753-1.125 2.726l3.531.883a6.344 6.344 0 0 1 .715-1.734zm17.176 0l-3.125 1.875c.32.53.562 1.113.715 1.734l3.531-.883a9.907 9.907 0 0 0-1.121-2.726zm-14.77 6.699l-3.53.883c.241.972.624 1.886 1.124 2.722l3.121-1.87a6.446 6.446 0 0 1-.715-1.735zm12.36 0a6.323 6.323 0 0 1-.715 1.734l3.125 1.871c.5-.836.883-1.75 1.121-2.722zm0 0" fill="#424242"/><path d="M7.035 9.207l2.07 2.895a1.82 1.82 0 1 0 1.469-1.469L7.68 8.566zm0 0" fill="#ef5350"/></svg>
